communes/5121.svg

<?xml version="1.0" encoding="UTF-8"?>
<svg version="1.0" viewBox="0 0 603 763" xmlns="http://www.w3.org/2000/svg" xmlns:cc="http://creativecommons.org/ns#" xmlns:dc="http://purl.org/dc/elements/1.1/" xmlns:rdf="http://www.w3.org/1999/02/22-rdf-syntax-ns#" xmlns:xlink="http://www.w3.org/1999/xlink">
<metadata>
<rdf:RDF>
<cc:Work rdf:about="">
<dc:format>image/svg+xml</dc:format>
<dc:type rdf:resource="http://purl.org/dc/dcmitype/StillImage"/>
<dc:date>07-AUG-2006</dc:date>
<dc:creator>
<cc:Agent>
<dc:title>Jérôme BLUM (wagner51)</dc:title>
</cc:Agent>
</dc:creator>
<cc:license rdf:resource="http://creativecommons.org/licenses/GPL/2.0/"/>
<dc:coverage/>
<dc:description>Gabarit pour le Projet:Blasons de WIkipédia</dc:description>
<dc:subject>
<rdf:Bag>
<rdf:li>blason suisse modèle gabarit projet blasons</rdf:li>
</rdf:Bag>
</dc:subject>
<dc:language>fr</dc:language>
<dc:title>Gabrit d'un blason suisse</dc:title>
</cc:Work>
<cc:License rdf:about="http://creativecommons.org/licenses/GPL/2.0/">
<cc:permits rdf:resource="http://web.resource.org/cc/Reproduction"/>
<cc:permits rdf:resource="http://web.resource.org/cc/Distribution"/>
<cc:requires rdf:resource="http://web.resource.org/cc/Notice"/>
<cc:permits rdf:resource="http://web.resource.org/cc/DerivativeWorks"/>
<cc:requires rdf:resource="http://web.resource.org/cc/ShareAlike"/>
<cc:requires rdf:resource="http://web.resource.org/cc/SourceCode"/>
</cc:License>
</rdf:RDF>
</metadata>
<defs>
<radialGradient id="a" cx="858.04" cy="579.93" r="300" gradientTransform="matrix(1.215 1.5316e-24 1.4647e-23 1.2667 -839.19 -490.49)" gradientUnits="userSpaceOnUse">
<stop stop-color="#fff" stop-opacity=".31373" offset="0"/>
<stop stop-color="#fff" stop-opacity=".25098" offset=".19"/>
<stop stop-color="#6b6b6b" stop-opacity=".12549" offset=".6"/>
<stop stop-opacity=".12549" offset="1"/>
</radialGradient>
</defs>
<desc>Coat of Arms of Canton of Freiburg (Fribourg)</desc>
<g>
<path d="m1.5 1.5v458.87c0 166.31 134.31 301.13 300 301.13 165.69 0 300-134.82 300-301.13v-458.87h-600z" fill="#e20909"/>
<path d="m1.5 1.5v458.87c0 166.31 134.31 301.13 300 301.13s300-134.82 300-301.13v-458.87h-600z" fill="#fff"/>
<path d="m215.23 357.5v44.846h41.929v-44.846l-20.964 19.774-20.965-19.774zm65.305 0v44.846h41.93v-44.846l-20.965 19.774-20.965-19.774zm86.27 19.774-20.965-19.774v44.846h41.93v-44.846l-20.965 19.774z" fill="#e20909" stroke="#000" stroke-linecap="round" stroke-linejoin="round" stroke-width="3"/>
<path d="m533.5 584.55-47.142-156.26h-369.72l-47.142 156.26h204.1v-50.991c0-13.263 12.49-24.014 27.897-24.014s27.897 10.751 27.897 24.014v50.991h204.1z" fill="#e20909" stroke="#000" stroke-linecap="round" stroke-linejoin="round" stroke-width="3"/>
<polygon points="99.162 402.34 116.64 428.3 486.36 428.3 503.84 402.34" fill="#e20909" stroke="#000" stroke-linecap="round" stroke-linejoin="round" stroke-width="3"/>
<path d="m116.64 402.34h75.214v-221.05h-75.214v221.05zm29.662-172.68h15.89v47.671h-15.89v-47.671 0zm264.84-48.377v221.05h75.215v-221.05h-75.215zm45.551 96.048h-15.891v-47.671h15.891v47.671z" fill="#e20909" stroke="#000" stroke-linecap="round" stroke-linejoin="round" stroke-width="3"/>
<path d="m183.06 143.86v23.306h-19.209v-23.306l-9.605 12.978-9.605-12.978v23.306h-19.209v-23.306l-9.605 12.978-9.604-12.978v37.431h96.048v-37.431l-9.605 12.978-9.606-12.978zm304.11 12.978-9.605-12.978v23.306h-19.209v-23.306l-9.604 12.978-9.604-12.978v23.306h-19.21v-23.306l-9.604 12.978-9.604-12.978v37.431h96.05v-37.431l-9.61 12.978z" fill="#e20909" stroke="#000" stroke-linecap="round" stroke-linejoin="round" stroke-width="3"/>
<path d="m314.65 254.56c16.739 3.74 21.366-13.097 21.366-13.097-23.502 8.608-22.434-19.083-18.516-33.677 3.916-14.595 20.61-27.804 29.912-16.838 9.298 10.963-0.716 23.2-0.716 23.2s34.543-8.606 34.543-37.793c0-29.188-29.625-39.431-50.919-22.452-10.328 8.229-23.863 23.57-23.863 63.986 2e-3 12.722 0.717 34.424 8.193 36.671z" fill="#e20909" stroke="#000" stroke-linecap="round" stroke-linejoin="round" stroke-width="3"/>
<path d="m288.35 254.56c-16.738 3.74-21.365-13.097-21.365-13.097 23.501 8.608 22.433-19.083 18.519-33.677-3.918-14.595-20.615-27.804-29.915-16.838-9.298 10.963 0.713 23.2 0.713 23.2s-34.541-8.606-34.541-37.793c0-29.188 29.624-39.431 50.92-22.452 10.327 8.229 23.86 23.57 23.86 63.986 1e-3 12.722-0.712 34.424-8.191 36.671z" fill="#e20909" stroke="#000" stroke-linecap="round" stroke-linejoin="round" stroke-width="3"/>
<path d="m281.24 139.97c0-21.571 14.607-32.419 20.257-59.145 5.652 26.726 20.258 37.572 20.258 59.145 0 32.436-15.145 40.745-15.145 76.638 0 27.397 7.348 27.01 7.348 37.432 0 11.19-8.081 10.803-12.461 26.3-4.382-15.498-12.46-15.113-12.46-26.3 0-10.422 7.345-10.038 7.345-37.432 1e-3 -35.89-15.142-44.202-15.142-76.638z" fill="#e20909" stroke="#000" stroke-linecap="round" stroke-linejoin="round" stroke-width="3"/>
<path d="m325.69 216.61c0-3.221-2.484-5.831-5.553-5.831h-37.276c-3.063 0-5.549 2.611-5.549 5.831v0c0 3.221 2.485 5.833 5.549 5.833h37.278c3.067-1e-3 5.551-2.612 5.551-5.833v0z" fill="#e20909" stroke="#000" stroke-linecap="round" stroke-linejoin="round" stroke-width="3"/>
</g>
<g>
<path d="m1.5 1.5v458.87c0 166.31 134.31 301.13 300 301.13 165.69 0 300-134.82 300-301.13v-458.87h-600z" fill="url(#a)"/>
<path d="m1.5 1.5v458.87c0 166.31 134.31 301.13 300 301.13 165.69 0 300-134.82 300-301.13v-458.87h-600z" fill="none" stroke="#000" stroke-width="3"/>
</g>
</svg>

<?xml version="1.0" encoding="UTF-8" standalone="no"?>
<svg
   xmlns:dc="http://purl.org/dc/elements/1.1/"
   xmlns:cc="http://creativecommons.org/ns#"
   xmlns:rdf="http://www.w3.org/1999/02/22-rdf-syntax-ns#"
   xmlns:svg="http://www.w3.org/2000/svg"
   xmlns="http://www.w3.org/2000/svg"
   xmlns:xlink="http://www.w3.org/1999/xlink"
   xmlns:sodipodi="http://sodipodi.sourceforge.net/DTD/sodipodi-0.dtd"
   xmlns:inkscape="http://www.inkscape.org/namespaces/inkscape"
   height="763"
   width="603"
   version="1.0"
   id="svg20"
   sodipodi:version="0.32"
   inkscape:version="0.46"
   sodipodi:docname="Orsalina-coat_of_arms.svg"
   sodipodi:docbase="C:\Documents and Settings\Steve\Bureau\Blason Villages Suisse pour Wikipédia (par Delta-9)"
   inkscape:output_extension="org.inkscape.output.svg.inkscape">
  <metadata
     id="metadata31">
    <rdf:RDF>
      <cc:Work
         rdf:about="">
        <dc:format>image/svg+xml</dc:format>
        <dc:type
           rdf:resource="http://purl.org/dc/dcmitype/StillImage" />
        <dc:date>07-AUG-2006</dc:date>
        <dc:creator>
          <cc:Agent>
            <dc:title>Jérôme BLUM (wagner51)</dc:title>
          </cc:Agent>
        </dc:creator>
        <cc:license
           rdf:resource="http://creativecommons.org/licenses/GPL/2.0/" />
        <dc:coverage />
        <dc:description>Gabarit pour le Projet:Blasons de WIkipédia</dc:description>
        <dc:subject>
          <rdf:Bag>
            <rdf:li>blason suisse modèle gabarit projet blasons</rdf:li>
          </rdf:Bag>
        </dc:subject>
        <dc:language>fr</dc:language>
        <dc:title>Gabrit d'un blason suisse</dc:title>
      </cc:Work>
      <cc:License
         rdf:about="http://creativecommons.org/licenses/GPL/2.0/">
        <cc:permits
           rdf:resource="http://web.resource.org/cc/Reproduction" />
        <cc:permits
           rdf:resource="http://web.resource.org/cc/Distribution" />
        <cc:requires
           rdf:resource="http://web.resource.org/cc/Notice" />
        <cc:permits
           rdf:resource="http://web.resource.org/cc/DerivativeWorks" />
        <cc:requires
           rdf:resource="http://web.resource.org/cc/ShareAlike" />
        <cc:requires
           rdf:resource="http://web.resource.org/cc/SourceCode" />
      </cc:License>
    </rdf:RDF>
  </metadata>
  <defs
     id="defs29"><inkscape:perspective
   sodipodi:type="inkscape:persp3d"
   inkscape:vp_x="0 : 381.5 : 1"
   inkscape:vp_y="0 : 1000 : 0"
   inkscape:vp_z="603 : 381.5 : 1"
   inkscape:persp3d-origin="301.5 : 254.33333 : 1"
   id="perspective28" />
<linearGradient
   id="linearGradient2893">
  <stop
     style="stop-color:#ffffff;stop-opacity:0.3137255;"
     offset="0"
     id="stop2895" />
  <stop
     id="stop2897"
     offset="0.19"
     style="stop-color:#ffffff;stop-opacity:0.25098041;" />
  <stop
     style="stop-color:#6b6b6b;stop-opacity:0.1254902;"
     offset="0.60000002"
     id="stop2901" />
  <stop
     style="stop-color:#000000;stop-opacity:0.1254902;"
     offset="1"
     id="stop2899" />
</linearGradient>
<linearGradient
   id="linearGradient2955">
  <stop
     style="stop-color:white;stop-opacity:0;"
     offset="0"
     id="stop2965" />
  <stop
     style="stop-color:black;stop-opacity:0.64583331;"
     offset="1"
     id="stop2959" />
</linearGradient>
<radialGradient
   inkscape:collect="always"
   xlink:href="#linearGradient2893"
   id="radialGradient3236"
   gradientUnits="userSpaceOnUse"
   gradientTransform="matrix(1.215027,1.531577e-24,1.464684e-23,1.266667,-839.1924,-490.4894)"
   cx="858.04236"
   cy="579.93323"
   fx="858.04236"
   fy="579.93323"
   r="300" />
<inkscape:perspective
   id="perspective2499"
   inkscape:persp3d-origin="306 : 264 : 1"
   inkscape:vp_z="612 : 396 : 1"
   inkscape:vp_y="0 : 1000 : 0"
   inkscape:vp_x="0 : 396 : 1"
   sodipodi:type="inkscape:persp3d" />

	
	

	

		
		
		
		
	
		
		
		
		
		
	</defs>
  <sodipodi:namedview
     inkscape:window-height="878"
     inkscape:window-width="1227"
     inkscape:pageshadow="2"
     inkscape:pageopacity="0.0"
     guidetolerance="10.0"
     gridtolerance="10.0"
     objecttolerance="10.0"
     borderopacity="1.0"
     bordercolor="#666666"
     pagecolor="#ffffff"
     id="base"
     inkscape:zoom="0.60248275"
     inkscape:cx="328.82012"
     inkscape:cy="313.0871"
     inkscape:window-x="1282"
     inkscape:window-y="81"
     inkscape:current-layer="layer2"
     showgrid="false"
     showguides="true"
     inkscape:guide-bbox="true">
    <sodipodi:guide
       orientation="horizontal"
       position="761.5"
       id="guide1885" />
    <sodipodi:guide
       orientation="vertical"
       position="1.5"
       id="guide1887" />
    <sodipodi:guide
       orientation="horizontal"
       position="1.5"
       id="guide1889" />
    <sodipodi:guide
       orientation="vertical"
       position="601.5"
       id="guide1891" />
    <sodipodi:guide
       orientation="vertical"
       position="301.50081"
       id="guide1893" />
  </sodipodi:namedview>
  <desc
     id="desc22">Coat of Arms of Canton of Freiburg (Fribourg)</desc>
  <g
     inkscape:groupmode="layer"
     id="layer1"
     inkscape:label="Fond écu"
     style="opacity:1"
     sodipodi:insensitive="true">
    <path
       id="path1899"
       d="M 1.5,1.49998 L 1.5,460.3679 C 1.5,626.6785 135.81456,761.5 301.49999,761.5 C 467.18543,761.5 601.5,626.6785 601.5,460.3679 L 601.5,1.49998 L 1.5,1.49998 z"
       style="fill:#e20909;fill-opacity:1" />
    <path
       d="M 1.5,1.5 L 1.5,460.368 C 1.5,626.679 135.814,761.5 301.5,761.5 C 467.186,761.5 601.5,626.679 601.5,460.368 L 601.5,1.5 L 1.5,1.5 z"
       id="path2506"
       style="opacity:1;fill:#ffffff" />
  </g>
  <g
     inkscape:groupmode="layer"
     id="layer2"
     inkscape:label="Meubles"
     style="opacity:1"
     sodipodi:insensitive="true">
    <path
       style="fill:#e20909;stroke:#000000;stroke-width:3;stroke-linecap:round;stroke-linejoin:round"
       d="M 215.23,357.498 L 215.23,402.344 L 257.159,402.344 L 257.159,357.498 L 236.195,377.272 L 215.23,357.498 z M 280.535,357.498 L 280.535,402.344 L 322.465,402.344 L 322.465,357.498 L 301.5,377.272 L 280.535,357.498 z M 366.805,377.272 L 345.84,357.498 L 345.84,402.344 L 387.77,402.344 L 387.77,357.498 L 366.805,377.272 z"
       id="path2478" />
    <path
       style="fill:#e20909;stroke:#000000;stroke-width:3;stroke-linecap:round;stroke-linejoin:round"
       d="M 533.5,584.554 L 486.358,428.298 L 116.642,428.298 L 69.5,584.554 L 273.603,584.554 L 273.603,533.563 C 273.603,520.3 286.093,509.549 301.5,509.549 C 316.907,509.549 329.397,520.3 329.397,533.563 L 329.397,584.554 L 533.5,584.554 z"
       id="path2480" />
    <polygon
       style="fill:#e20909;stroke:#000000;stroke-width:3;stroke-linecap:round;stroke-linejoin:round"
       points="99.162,402.344 116.642,428.298 486.358,428.298 503.838,402.344 99.162,402.344 "
       id="polygon2482" />
    <path
       style="fill:#e20909;stroke:#000000;stroke-width:3;stroke-linecap:round;stroke-linejoin:round"
       d="M 116.642,402.344 L 191.856,402.344 L 191.856,181.291 L 116.642,181.291 L 116.642,402.344 z M 146.304,229.668 L 162.194,229.668 L 162.194,277.339 L 146.304,277.339 L 146.304,229.668 L 146.304,229.668 z M 411.145,181.291 L 411.145,402.344 L 486.36,402.344 L 486.36,181.291 L 411.145,181.291 z M 456.696,277.339 L 440.805,277.339 L 440.805,229.668 L 456.696,229.668 L 456.696,277.339 z"
       id="path2484" />
    <path
       style="fill:#e20909;stroke:#000000;stroke-width:3;stroke-linecap:round;stroke-linejoin:round"
       d="M 183.063,143.859 L 183.063,167.165 L 163.854,167.165 L 163.854,143.859 L 154.249,156.837 L 144.644,143.859 L 144.644,167.165 L 125.435,167.165 L 125.435,143.859 L 115.83,156.837 L 106.226,143.859 L 106.226,181.29 L 202.274,181.29 L 202.274,143.859 L 192.669,156.837 L 183.063,143.859 z M 487.171,156.837 L 477.566,143.859 L 477.566,167.165 L 458.357,167.165 L 458.357,143.859 L 448.753,156.837 L 439.149,143.859 L 439.149,167.165 L 419.939,167.165 L 419.939,143.859 L 410.335,156.837 L 400.731,143.859 L 400.731,181.29 L 496.781,181.29 L 496.781,143.859 L 487.171,156.837 z"
       id="path2486" />
    <path
       style="fill:#e20909;stroke:#000000;stroke-width:3;stroke-linecap:round;stroke-linejoin:round"
       id="path2001_2_"
       d="M 314.65,254.556 C 331.389,258.296 336.016,241.459 336.016,241.459 C 312.514,250.067 313.582,222.376 317.5,207.782 C 321.416,193.187 338.11,179.978 347.412,190.944 C 356.71,201.907 346.696,214.144 346.696,214.144 C 346.696,214.144 381.239,205.538 381.239,176.351 C 381.239,147.163 351.614,136.92 330.32,153.899 C 319.992,162.128 306.457,177.469 306.457,217.885 C 306.459,230.607 307.174,252.309 314.65,254.556 z" />
    <path
       style="fill:#e20909;stroke:#000000;stroke-width:3;stroke-linecap:round;stroke-linejoin:round"
       id="path2003_2_"
       d="M 288.349,254.556 C 271.611,258.296 266.984,241.459 266.984,241.459 C 290.485,250.067 289.417,222.376 285.503,207.782 C 281.585,193.187 264.888,179.978 255.588,190.944 C 246.29,201.907 256.301,214.144 256.301,214.144 C 256.301,214.144 221.76,205.538 221.76,176.351 C 221.76,147.163 251.384,136.92 272.68,153.899 C 283.007,162.128 296.54,177.469 296.54,217.885 C 296.541,230.607 295.828,252.309 288.349,254.556 z" />
    <path
       style="fill:#e20909;stroke:#000000;stroke-width:3;stroke-linecap:round;stroke-linejoin:round"
       id="path2005_2_"
       d="M 281.243,139.972 C 281.243,118.401 295.85,107.553 301.5,80.826997 C 307.152,107.553 321.758,118.399 321.758,139.972 C 321.758,172.408 306.613,180.717 306.613,216.61 C 306.613,244.007 313.961,243.62 313.961,254.042 C 313.961,265.232 305.88,264.845 301.5,280.342 C 297.118,264.844 289.04,265.229 289.04,254.042 C 289.04,243.62 296.385,244.004 296.385,216.61 C 296.386,180.72 281.243,172.408 281.243,139.972 z" />
    <path
       style="fill:#e20909;stroke:#000000;stroke-width:3;stroke-linecap:round;stroke-linejoin:round"
       id="path2007_2_"
       d="M 325.689,216.606 C 325.689,213.385 323.205,210.775 320.136,210.775 L 282.86,210.775 C 279.797,210.775 277.311,213.386 277.311,216.606 L 277.311,216.606 C 277.311,219.827 279.796,222.439 282.86,222.439 L 320.138,222.439 C 323.205,222.438 325.689,219.827 325.689,216.606 L 325.689,216.606 z" />
  </g>
  <g
     inkscape:groupmode="layer"
     id="layer3"
     inkscape:label="Reflet final"
     style="display:inline"
     sodipodi:insensitive="true">
    <path
       style="fill:url(#radialGradient3236);fill-opacity:1"
       d="M 1.5,1.5 L 1.5,460.3679 C 1.5,626.67854 135.81454,761.5 301.49993,761.5 C 467.1854,761.5 601.5,626.67854 601.5,460.3679 L 601.5,1.5 L 1.5,1.5 z "
       id="path2346" />
  </g>
  <g
     inkscape:groupmode="layer"
     id="layer4"
     inkscape:label="Contour final"
     style="display:inline"
     sodipodi:insensitive="true">
    <path
       style="fill:none;fill-opacity:1;stroke:#000000;stroke-width:3;stroke-miterlimit:4;stroke-dasharray:none;stroke-opacity:1"
       d="M 1.5,1.5 L 1.5,460.36794 C 1.5,626.67854 135.81454,761.5 301.49993,761.5 C 467.1854,761.5 601.5,626.67854 601.5,460.36794 L 601.5,1.5 L 1.5,1.5 z "
       id="path3239" />
  </g>
</svg>
